static/assets/head_icons_png/man/bizi/1004529.svg

<svg xmlns="http://www.w3.org/2000/svg" width="26" height="42"><g transform="translate(4.05 5.9)"><radialGradient id="a" gradientUnits="userSpaceOnUse" gradientTransform="matrix(.00516 -.00307 .00511 .01482 14.7 17.9)" spreadMethod="pad" cx="0" cy="0" r="819.2" fx="0" fy="0"><stop offset=".337" stop-color="#f9c29f"/><stop offset="1" stop-color="#fedec1" stop-opacity="0"/></radialGradient><path d="M21.05 18.75q.5 2.55-2.1 5.35-.85.9-.9 4.15v.05l.05.05-.3-.35q-1.7-4.15-2.95-9-1.15-4.85-2.45-12.55l.5 1.65-.45-1.8q3.8 7.9 6.3 8.95 1.1.4 1.35.7.5.65.95 2.8" fill="url(#a)"/><radialGradient id="b" gradientUnits="userSpaceOnUse" gradientTransform="matrix(.00395 .00035 -.00076 .00781 1.6 19.1)" spreadMethod="pad" cx="0" cy="0" r="819.2" fx="0" fy="0"><stop offset="0" stop-color="#f8c898"/><stop offset=".035" stop-color="#fdc7a7"/><stop offset="1" stop-color="#fdddc0"/></radialGradient><path d="M3.8 24.9l-.2.95q-4.65 1.8-3.75-1.2L1.5 18.5l2-9.45.7 6.5q.25 5.3-.4 9.35" fill="url(#b)"/><radialGradient id="c" gradientUnits="userSpaceOnUse" gradientTransform="matrix(.0001 .00623 -.04132 .00073 13.2 29.7)" spreadMethod="pad" cx="0" cy="0" r="819.2" fx="0" fy="0"><stop offset="0" stop-color="#f8c898"/><stop offset=".035" stop-color="#fdc7a7"/><stop offset="1" stop-color="#fdddc0"/></radialGradient><path d="M12.2 20.65l.4 2.35 1.45 2.5.55 1.4q.35 1.4-.3 2.1l-1.4.95-2.1 1.75q-1.45 1.35-2.75 1.15-1.35-.2-2.7-1.35-1.4-1.25-2.45-1.25l-3.2.5q-2.2-.25-2.85-2.1-.65-1.9.2-3.4.8-1.5 2.85-2.9-2.4 4.9-.3 5.8 2.05.9 2.95.55-.35-.45.05-1.75-.05.95.9 1.85.95.9 2.25 1.4 1.3.55 2.55.55 1.25 0 2.6-.65t2.1-2.15q.7-1.55.15-2.3-.6-.85-.85-2.55l-.1-2.45M4.6 26.2l-.25.25.05-.3q.15-1 .2.05" fill="url(#c)"/><radialGradient id="d" gradientUnits="userSpaceOnUse" gradientTransform="matrix(.00778 -.00165 .00388 .01863 12.6 20.15)" spreadMethod="pad" cx="0" cy="0" r="819.2" fx="0" fy="0"><stop offset="0" stop-color="#f8c898"/><stop offset=".035" stop-color="#fdc7a7"/><stop offset="1" stop-color="#fdddc0"/></radialGradient><path d="M10.7 8.65l2.85 7.3q2.05 6.05 2.75 11l.1.65q-2.4.25-4.05-4-.6-1.5-.9-4.5-.35-2.95-.75-10.45" fill="url(#d)"/><radialGradient id="e" gradientUnits="userSpaceOnUse" gradientTransform="matrix(.0048 -.0037 .0065 .01411 13.9 25.05)" spreadMethod="pad" cx="0" cy="0" r="819.2" fx="0" fy="0"><stop offset=".337" stop-color="#f9c29f"/><stop offset="1" stop-color="#fedec1" stop-opacity="0"/></radialGradient><path d="M17.7 21.9q1.1.3 1.4.55.55.6 1.05 3.5.5 2.8-2.3 3.9-2.8 1.15-5.55.3 2.65-1.95 1.95-4-1.7-4.7-3.7-12.2l.65 1.6-.65-1.7q4.55 7.3 7.15 8.05m.6 13.05v.1l-.15-.2.15.1" fill="url(#e)"/><radialGradient id="f" gradientUnits="userSpaceOnUse" gradientTransform="matrix(-.0121 .00624 .02673 .02937 -10.25 32.6)" spreadMethod="pad" cx="0" cy="0" r="819.2" fx="0" fy="0"><stop offset=".337" stop-color="#f9c29f"/><stop offset="1" stop-color="#fedec1" stop-opacity="0"/></radialGradient><path d="M4.25 14.4l-.05.15.05-.15M-3.3 35.45l-.15.2v-.1l.15-.1m2.6-12.1q.85 5.65 3.2 7.4-2.55.85-4.7 0-2.2-.85-1.8-3.3.35-2.45 2.1-3.3l1.2-.8" fill="url(#f)"/><radialGradient id="g" gradientUnits="userSpaceOnUse" gradientTransform="matrix(.0121 .00624 -.02673 .02937 26.9 32.6)" spreadMethod="pad" cx="0" cy="0" r="819.2" fx="0" fy="0"><stop offset=".337" stop-color="#f9c29f"/><stop offset="1" stop-color="#fedec1" stop-opacity="0"/></radialGradient><path d="M12.4 14.4l.05.15-.05-.15m4.95 8.95q-.85 5.65-3.2 7.4 2.55.85 4.7 0 2.2-.85 1.8-3.3-.35-2.45-2.1-3.3l-1.2-.8m2.6 12.1l.15.2v-.1l-.15-.1" fill="url(#g)"/><radialGradient id="h" gradientUnits="userSpaceOnUse" gradientTransform="matrix(.00732 .00024 -.00024 .00748 7.75 34.75)" spreadMethod="pad" cx="0" cy="0" r="819.2" fx="0" fy="0"><stop offset="0" stop-color="#f39b61"/><stop offset="1" stop-color="#f8be98"/></radialGradient><path d="M16.85 26.2q.3-2-2.95-2.65l-.1.1-.2-.5-.65-2.65q-.9-2.9-1.45-8.55-.6-5.65 0-7.55.6-1.95 4.9-4.3-2.65 6.8-2.4 10.5.3 3.65 1.25 6.6l1.4 4.5.4.8L19 24.85q1 2.65-.3 4.25t-2.95 1.85q-1.65.25-2.4.8-.8.5-2.3 1.35l-.4.2q-1.95 1.35-3.6.55L3.8 32.2l-2.3-.7q-4.3-1.25-2.85-2.15 1.45-.9 3.95.35l4.1 1.9 2.85.2q1.2-.35 2.85-1.55l.65-.55 1.05-1.3q2.45-.2 2.75-2.2m-3.45 2.45l-.05.05.05-.15v.1" fill="url(#h)"/><radialGradient id="i" gradientUnits="userSpaceOnUse" gradientTransform="matrix(.01274 0 0 .01227 4.6 26.35)" spreadMethod="pad" cx="0" cy="0" r="819.2" fx="0" fy="0"><stop offset="0" stop-color="#f39b61"/><stop offset="1" stop-color="#f9c8a8"/></radialGradient><path d="M13.8 23.65l.1-.1q3.25.65 2.95 2.65-.3 2-2.75 2.2l.1-.2.2-.6q.25-.65-.2-1.7.45.15-.4-2.25" fill="url(#i)"/><radialGradient id="j" gradientUnits="userSpaceOnUse" gradientTransform="matrix(.01314 -.00108 -.00485 .03679 9.35 13.45)" spreadMethod="pad" cx="0" cy="0" r="819.2" fx="0" fy="0"><stop offset=".337" stop-color="#f9c29f"/><stop offset="1" stop-color="#fedec1" stop-opacity="0"/></radialGradient><path d="M-2.8-5.8l-.05-.1.05.1M4.7 9.35l-.65 6.3-.1.85v.45L3.7 18.3l.15-.6-.35 3.65Q1.15 32.75-.7 9.45q.3-4 1.85-6.6.25-.5-2.7-3.5 4.3 1.9 6.45 5l-.2 5" fill="url(#j)"/><path d="M13.35 31.55l-1.75.7-.85.55-.65.45-.85.3-.65.1-.45-.1-1.35-.4-.25-.1h.05l1 .15 2.2-.25 1.2-.65 2.25-1.2 2.05-.9 1.9-.1q1 .15-.6.95l-.9-.1-2.35.6M.4 31.1q-1.45-.05-1.35-.5.1-.45.95-.45l1.45.2q.65.2 2.05.95l2.85 1.6v.05l-.75-.3-2.15-.8Q1.8 31.15.4 31.1" fill="#823909"/><radialGradient id="k" gradientUnits="userSpaceOnUse" gradientTransform="matrix(.0028 .00026 -.0001 .01097 7.45 13.6)" spreadMethod="pad" cx="0" cy="0" r="819.2" fx="0" fy="0"><stop offset=".314" stop-color="#fff" stop-opacity=".431"/><stop offset="1" stop-color="#fff" stop-opacity="0"/></radialGradient><path d="M8.7 7.5q.45 2.65.45 6.35-.1 3.65-.6 6.2L8.2 21.4l-.1.2q-.35 1-.8.95-.5-.05-.85-1.15l-.05-.2-.35-1.3q-.5-2.65-.45-6.35.05-3.75.6-6.35.5-2.55 1.25-2.45.75.05 1.25 2.75" fill="url(#k)"/><radialGradient id="l" gradientUnits="userSpaceOnUse" gradientTransform="matrix(.00217 .00012 -.00012 .00221 6.85 25.6)" spreadMethod="pad" cx="0" cy="0" r="819.2" fx="0" fy="0"><stop offset=".314" stop-color="#fff" stop-opacity=".431"/><stop offset="1" stop-color="#fff" stop-opacity="0"/></radialGradient><path d="M6.9 23.8q.7 0 1.15.5.5.6.45 1.35-.05.7-.6 1.2-.55.5-1.2.45-.75-.05-1.2-.6-.5-.55-.45-1.25 0-.7.5-1.2.6-.5 1.35-.45" fill="url(#l)"/></g></svg>

<?xml version="1.0" encoding="utf-8"?>
<svg version="1.1" id="Layer_1"
xmlns="http://www.w3.org/2000/svg"
xmlns:xlink="http://www.w3.org/1999/xlink"
xmlns:author="http://www.sothink.com"
width="26px" height="42px"
xml:space="preserve">
<g id="436" transform="matrix(1, 0, 0, 1, 4.05, 5.9)">
<radialGradient
id="RadialGradID_3871" gradientUnits="userSpaceOnUse" gradientTransform="matrix(0.00515747, -0.00306702, 0.00511169, 0.0148163, 14.7, 17.9)" spreadMethod ="pad" cx="0" cy="0" r="819.2" fx="0" fy="0" >
<stop  offset="0.337255"  style="stop-color:#F9C29F;stop-opacity:1" />
<stop  offset="1"  style="stop-color:#FEDEC1;stop-opacity:0" />
</radialGradient>
<path style="fill:url(#RadialGradID_3871) " d="M21.05,18.75Q21.55 21.3 18.95 24.1Q18.1 25 18.05 28.25L18.05 28.3L18.1 28.35L17.8 28Q16.1 23.85 14.85 19Q13.7 14.15 12.4 6.45L12.9 8.1L12.45 6.3Q16.25 14.2 18.75 15.25Q19.85 15.65 20.1 15.95Q20.6 16.6 21.05 18.75" />
<radialGradient
id="RadialGradID_3872" gradientUnits="userSpaceOnUse" gradientTransform="matrix(0.00395203, 0.000350952, -0.000762939, 0.0078125, 1.6, 19.1)" spreadMethod ="pad" cx="0" cy="0" r="819.2" fx="0" fy="0" >
<stop  offset="0"  style="stop-color:#F8C898;stop-opacity:1" />
<stop  offset="0.0352941"  style="stop-color:#FDC7A7;stop-opacity:1" />
<stop  offset="1"  style="stop-color:#FDDDC0;stop-opacity:1" />
</radialGradient>
<path style="fill:url(#RadialGradID_3872) " d="M3.8,24.9L3.6 25.85Q-1.05 27.65 -0.15 24.65L1.5 18.5L3.5 9.05L4.2 15.55Q4.45 20.85 3.8 24.9" />
<radialGradient
id="RadialGradID_3873" gradientUnits="userSpaceOnUse" gradientTransform="matrix(0.000106812, 0.00622559, -0.0413208, 0.000732422, 13.2, 29.7)" spreadMethod ="pad" cx="0" cy="0" r="819.2" fx="0" fy="0" >
<stop  offset="0"  style="stop-color:#F8C898;stop-opacity:1" />
<stop  offset="0.0352941"  style="stop-color:#FDC7A7;stop-opacity:1" />
<stop  offset="1"  style="stop-color:#FDDDC0;stop-opacity:1" />
</radialGradient>
<path style="fill:url(#RadialGradID_3873) " d="M12.2,20.65L12.6 23L14.05 25.5L14.6 26.9Q14.95 28.3 14.3 29L12.9 29.95L10.8 31.7Q9.35 33.05 8.05 32.85Q6.7 32.65 5.35 31.5Q3.95 30.25 2.9 30.25L-0.3 30.75Q-2.5 30.5 -3.15 28.65Q-3.8 26.75 -2.95 25.25Q-2.15 23.75 -0.1 22.35Q-2.5 27.25 -0.4 28.15Q1.65 29.05 2.55 28.7Q2.2 28.25 2.6 26.95Q2.55 27.9 3.5 28.8Q4.45 29.7 5.75 30.2Q7.05 30.75 8.3 30.75Q9.55 30.75 10.9 30.1Q12.25 29.45 13 27.95Q13.7 26.4 13.15 25.65Q12.55 24.8 12.3 23.1L12.2 20.65M4.6,26.2L4.35 26.45L4.4 26.15Q4.55 25.15 4.6 26.2" />
<radialGradient
id="RadialGradID_3874" gradientUnits="userSpaceOnUse" gradientTransform="matrix(0.00778198, -0.00164795, 0.00387573, 0.018631, 12.6, 20.15)" spreadMethod ="pad" cx="0" cy="0" r="819.2" fx="0" fy="0" >
<stop  offset="0"  style="stop-color:#F8C898;stop-opacity:1" />
<stop  offset="0.0352941"  style="stop-color:#FDC7A7;stop-opacity:1" />
<stop  offset="1"  style="stop-color:#FDDDC0;stop-opacity:1" />
</radialGradient>
<path style="fill:url(#RadialGradID_3874) " d="M10.7,8.65L13.55 15.95Q15.6 22 16.3 26.95L16.4 27.6Q14 27.85 12.35 23.6Q11.75 22.1 11.45 19.1Q11.1 16.15 10.7 8.65" />
<radialGradient
id="RadialGradID_3875" gradientUnits="userSpaceOnUse" gradientTransform="matrix(0.00480652, -0.00369263, 0.00650024, 0.0141144, 13.9, 25.05)" spreadMethod ="pad" cx="0" cy="0" r="819.2" fx="0" fy="0" >
<stop  offset="0.337255"  style="stop-color:#F9C29F;stop-opacity:1" />
<stop  offset="1"  style="stop-color:#FEDEC1;stop-opacity:0" />
</radialGradient>
<path style="fill:url(#RadialGradID_3875) " d="M17.7,21.9Q18.8 22.2 19.1 22.45Q19.65 23.05 20.15 25.95Q20.65 28.75 17.85 29.85Q15.05 31 12.3 30.15Q14.95 28.2 14.25 26.15Q12.55 21.45 10.55 13.95L11.2 15.55L10.55 13.85Q15.1 21.15 17.7 21.9M18.3,34.95L18.3 35.05L18.15 34.85L18.3 34.95" />
<radialGradient
id="RadialGradID_3876" gradientUnits="userSpaceOnUse" gradientTransform="matrix(-0.0121002, 0.00624084, 0.0267334, 0.0293732, -10.25, 32.6)" spreadMethod ="pad" cx="0" cy="0" r="819.2" fx="0" fy="0" >
<stop  offset="0.337255"  style="stop-color:#F9C29F;stop-opacity:1" />
<stop  offset="1"  style="stop-color:#FEDEC1;stop-opacity:0" />
</radialGradient>
<path style="fill:url(#RadialGradID_3876) " d="M4.25,14.4L4.2 14.55L4.25 14.4M-3.3,35.45L-3.45 35.65L-3.45 35.55L-3.3 35.45M-0.7,23.35Q0.15 29 2.5 30.75Q-0.05 31.6 -2.2 30.75Q-4.4 29.9 -4 27.45Q-3.65 25 -1.9 24.15L-0.7 23.35" />
<radialGradient
id="RadialGradID_3877" gradientUnits="userSpaceOnUse" gradientTransform="matrix(0.0121002, 0.00624084, -0.0267334, 0.0293732, 26.9, 32.6)" spreadMethod ="pad" cx="0" cy="0" r="819.2" fx="0" fy="0" >
<stop  offset="0.337255"  style="stop-color:#F9C29F;stop-opacity:1" />
<stop  offset="1"  style="stop-color:#FEDEC1;stop-opacity:0" />
</radialGradient>
<path style="fill:url(#RadialGradID_3877) " d="M12.4,14.4L12.45 14.55L12.4 14.4M17.35,23.35Q16.5 29 14.15 30.75Q16.7 31.6 18.85 30.75Q21.05 29.9 20.65 27.45Q20.3 25 18.55 24.15L17.35 23.35M19.95,35.45L20.1 35.65L20.1 35.55L19.95 35.45" />
<radialGradient
id="RadialGradID_3878" gradientUnits="userSpaceOnUse" gradientTransform="matrix(0.00732422, 0.000244141, -0.000244141, 0.00747681, 7.75, 34.75)" spreadMethod ="pad" cx="0" cy="0" r="819.2" fx="0" fy="0" >
<stop  offset="0"  style="stop-color:#F39B61;stop-opacity:1" />
<stop  offset="1"  style="stop-color:#F8BE98;stop-opacity:1" />
</radialGradient>
<path style="fill:url(#RadialGradID_3878) " d="M16.85,26.2Q17.15 24.2 13.9 23.55L13.8 23.65L13.6 23.15L12.95 20.5Q12.05 17.6 11.5 11.95Q10.9 6.3 11.5 4.4Q12.1 2.45 16.4 0.1Q13.75 6.9 14 10.6Q14.3 14.25 15.25 17.2L16.65 21.7L17.05 22.5L19 24.85Q20 27.5 18.7 29.1Q17.4 30.7 15.75 30.95Q14.1 31.2 13.35 31.75Q12.55 32.25 11.05 33.1L10.65 33.3Q8.7 34.65 7.05 33.85L3.8 32.2L1.5 31.5Q-2.8 30.25 -1.35 29.35Q0.1 28.45 2.6 29.7L6.7 31.6L9.55 31.8Q10.75 31.45 12.4 30.25L13.05 29.7L14.1 28.4Q16.55 28.2 16.85 26.2M13.4,28.65L13.35 28.7L13.4 28.55L13.4 28.65" />
<radialGradient
id="RadialGradID_3879" gradientUnits="userSpaceOnUse" gradientTransform="matrix(0.0127411, 0, 0, 0.0122681, 4.6, 26.35)" spreadMethod ="pad" cx="0" cy="0" r="819.2" fx="0" fy="0" >
<stop  offset="0"  style="stop-color:#F39B61;stop-opacity:1" />
<stop  offset="1"  style="stop-color:#F9C8A8;stop-opacity:1" />
</radialGradient>
<path style="fill:url(#RadialGradID_3879) " d="M13.8,23.65L13.9 23.55Q17.15 24.2 16.85 26.2Q16.55 28.2 14.1 28.4L14.2 28.2L14.4 27.6Q14.65 26.95 14.2 25.9Q14.65 26.05 13.8 23.65" />
<radialGradient
id="RadialGradID_3880" gradientUnits="userSpaceOnUse" gradientTransform="matrix(0.0131378, -0.00108337, -0.00485229, 0.0367889, 9.35, 13.45)" spreadMethod ="pad" cx="0" cy="0" r="819.2" fx="0" fy="0" >
<stop  offset="0.337255"  style="stop-color:#F9C29F;stop-opacity:1" />
<stop  offset="1"  style="stop-color:#FEDEC1;stop-opacity:0" />
</radialGradient>
<path style="fill:url(#RadialGradID_3880) " d="M-2.8,-5.8L-2.85 -5.9L-2.8 -5.8M4.7,9.35L4.05 15.65L3.95 16.5L3.95 16.95L3.7 18.3L3.85 17.7L3.5 21.35Q1.15 32.75 -0.7 9.45Q-0.4 5.45 1.15 2.85Q1.4 2.35 -1.55 -0.65Q2.75 1.25 4.9 4.35L4.7 9.35" />
<path style="fill:#823909;fill-opacity:1" d="M13.35,31.55L11.6 32.25L10.75 32.8L10.1 33.25L9.25 33.55L8.6 33.65L8.15 33.55L6.8 33.15L6.55 33.05L6.6 33.05L7.6 33.2L9.8 32.95L11 32.3L13.25 31.1L15.3 30.2L17.2 30.1Q18.2 30.25 16.6 31.05L15.7 30.95L13.35 31.55M0.4,31.1Q-1.05 31.05 -0.95 30.6Q-0.85 30.15 0 30.15L1.45 30.35Q2.1 30.55 3.5 31.3L6.35 32.9L6.35 32.95L5.6 32.65L3.45 31.85Q1.8 31.15 0.4 31.1" />
<radialGradient
id="RadialGradID_3881" gradientUnits="userSpaceOnUse" gradientTransform="matrix(0.00279236, 0.000259399, -0.000106812, 0.0109711, 7.45, 13.6)" spreadMethod ="pad" cx="0" cy="0" r="819.2" fx="0" fy="0" >
<stop  offset="0.313725"  style="stop-color:#FFFFFF;stop-opacity:0.431373" />
<stop  offset="1"  style="stop-color:#FFFFFF;stop-opacity:0" />
</radialGradient>
<path style="fill:url(#RadialGradID_3881) " d="M8.7,7.5Q9.15 10.15 9.15 13.85Q9.05 17.5 8.55 20.05L8.2 21.4L8.1 21.6Q7.75 22.6 7.3 22.55Q6.8 22.5 6.45 21.4L6.4 21.2L6.05 19.9Q5.55 17.25 5.6 13.55Q5.65 9.8 6.2 7.2Q6.7 4.65 7.45 4.75Q8.2 4.8 8.7 7.5" />
<radialGradient
id="RadialGradID_3882" gradientUnits="userSpaceOnUse" gradientTransform="matrix(0.00216675, 0.00012207, -0.00012207, 0.00221252, 6.85, 25.6)" spreadMethod ="pad" cx="0" cy="0" r="819.2" fx="0" fy="0" >
<stop  offset="0.313725"  style="stop-color:#FFFFFF;stop-opacity:0.431373" />
<stop  offset="1"  style="stop-color:#FFFFFF;stop-opacity:0" />
</radialGradient>
<path style="fill:url(#RadialGradID_3882) " d="M6.9,23.8Q7.6 23.8 8.05 24.3Q8.55 24.9 8.5 25.65Q8.45 26.35 7.9 26.85Q7.35 27.35 6.7 27.3Q5.95 27.25 5.5 26.7Q5 26.15 5.05 25.45Q5.05 24.75 5.55 24.25Q6.15 23.75 6.9 23.8" />
</g>
</svg>
